svg/american-football-sharp.svg

<svg xmlns="http://www.w3.org/2000/svg" width="512" height="512" viewBox="0 0 512 512"><title>ionicons-v5-a</title><path d="M120.9,120.51c-44.75,44.56-67.29,101.05-78.64,145.9L244.57,467.85c45.05-11.3,101.78-33.74,146.53-78.3s67.29-101.05,78.64-145.91L267.43,42.21C222.38,53.51,165.65,76,120.9,120.51Zm259,257.83h0Zm-45-224.2,22.52,22.42-33.78,33.63,22.52,22.42L323.55,255,301,232.61,278.52,255,301,277.45l-22.51,22.42L256,277.45l-22.52,22.42L256,322.29l-22.52,22.42L211,322.29l-33.78,33.63L154.67,333.5l33.78-33.63-22.52-22.42L188.45,255,211,277.45,233.48,255,211,232.61l22.51-22.42L256,232.61l22.52-22.42L256,187.77l22.52-22.42L301,187.77Z"/><path d="M478.48,198.41C485.85,143.65,464,48.05,464,48.05S367.86,26.17,312.86,33.51c-2.54.33-5.21.72-8,1.14L477.33,206.36C477.76,203.6,478.14,200.94,478.48,198.41Z"/><path d="M33.52,311.65C26.15,366.41,48.05,464,48.05,464s60,16,99.86,16a391.92,391.92,0,0,0,51.23-3.45c2.54-.33,5.21-.72,8-1.15L34.67,303.7C34.24,306.46,33.86,309.12,33.52,311.65Z"/></svg>

<?xml version="1.0" encoding="UTF-8" standalone="no"?>
<svg
   xmlns:dc="http://purl.org/dc/elements/1.1/"
   xmlns:cc="http://creativecommons.org/ns#"
   xmlns:rdf="http://www.w3.org/1999/02/22-rdf-syntax-ns#"
   xmlns:svg="http://www.w3.org/2000/svg"
   xmlns="http://www.w3.org/2000/svg"
   xmlns:sodipodi="http://sodipodi.sourceforge.net/DTD/sodipodi-0.dtd"
   xmlns:inkscape="http://www.inkscape.org/namespaces/inkscape"
   class="ionicon"
   viewBox="0 0 512 512"
   version="1.1"
   id="svg14"
   sodipodi:docname="american-football-sharp.svg"
   inkscape:version="1.0.2 (e86c8708, 2021-01-15)">
  <metadata
     id="metadata20">
    <rdf:RDF>
      <cc:Work
         rdf:about="">
        <dc:format>image/svg+xml</dc:format>
        <dc:type
           rdf:resource="http://purl.org/dc/dcmitype/StillImage" />
      </cc:Work>
    </rdf:RDF>
  </metadata>
  <defs
     id="defs18" />
  <sodipodi:namedview
     pagecolor="#ffffff"
     bordercolor="#666666"
     borderopacity="1"
     objecttolerance="10"
     gridtolerance="10"
     guidetolerance="10"
     inkscape:pageopacity="0"
     inkscape:pageshadow="2"
     inkscape:window-width="705"
     inkscape:window-height="480"
     id="namedview16"
     showgrid="false"
     inkscape:zoom="0.36388287"
     inkscape:cx="256"
     inkscape:cy="256"
     inkscape:window-x="248"
     inkscape:window-y="84"
     inkscape:window-maximized="0"
     inkscape:current-layer="svg14" />
  <title
     id="title10">American Football</title>
  <path
     style="color:#000000;font-style:normal;font-variant:normal;font-weight:normal;font-stretch:normal;font-size:medium;line-height:normal;font-family:sans-serif;font-variant-ligatures:normal;font-variant-position:normal;font-variant-caps:normal;font-variant-numeric:normal;font-variant-alternates:normal;font-variant-east-asian:normal;font-feature-settings:normal;font-variation-settings:normal;text-indent:0;text-align:start;text-decoration:none;text-decoration-line:none;text-decoration-style:solid;text-decoration-color:#000000;letter-spacing:normal;word-spacing:normal;text-transform:none;writing-mode:lr-tb;direction:ltr;text-orientation:mixed;dominant-baseline:auto;baseline-shift:baseline;text-anchor:start;white-space:normal;shape-padding:0;shape-margin:0;inline-size:0;clip-rule:nonzero;display:inline;overflow:visible;visibility:visible;isolation:auto;mix-blend-mode:normal;color-interpolation:sRGB;color-interpolation-filters:linearRGB;solid-color:#000000;solid-opacity:1;vector-effect:none;fill:#000000;fill-opacity:1;fill-rule:nonzero;stroke-width:1;stroke-linecap:butt;stroke-linejoin:miter;stroke-miterlimit:4;stroke-dasharray:none;stroke-dashoffset:0;stroke-opacity:1;color-rendering:auto;image-rendering:auto;shape-rendering:auto;text-rendering:auto;enable-background:accumulate;stop-color:#000000;stop-opacity:1;stroke:none;opacity:1"
     d="M 120.9,120.51 C 76.15,165.07 53.61,221.56 42.26,266.41 l 202.31,201.44 c 45.05,-11.3 101.78,-33.74 146.53,-78.3 44.75,-44.56 67.29,-101.05 78.64,-145.91 L 267.43,42.21 C 222.38,53.51 165.65,76 120.9,120.51 Z m 259,257.83 z m -45,-224.2 22.52,22.42 -33.78,33.63 22.52,22.42 L 323.55,255 301,232.61 278.52,255 301,277.45 278.49,299.87 256,277.45 233.48,299.87 256,322.29 233.48,344.71 211,322.29 177.22,355.92 154.67,333.5 188.45,299.87 165.93,277.45 188.45,255 211,277.45 233.48,255 211,232.61 233.51,210.19 256,232.61 278.52,210.19 256,187.77 278.52,165.35 301,187.77 Z m 143.58,44.27 C 485.85,143.65 464,48.05 464,48.05 c 0,0 -96.14,-21.88 -151.14,-14.54 -2.54,0.33 -5.21,0.72 -8,1.14 l 172.47,171.71 c 0.43,-2.76 0.81,-5.42 1.15,-7.95 z M 33.52,311.65 C 26.15,366.41 48.05,464 48.05,464 c 0,0 60,16 99.86,16 17.13372,-0.0289 34.2471,-1.18141 51.23,-3.45 2.54,-0.33 5.21,-0.72 8,-1.15 L 34.67,303.7 c -0.43,2.76 -0.81,5.42 -1.15,7.95 z"
     id="path12" />
</svg>
